src/icons/svg/sort-down.svg

<svg width="12" height="12" viewBox="0 0 12 12" fill="none" xmlns="http://www.w3.org/2000/svg">
<path d="M0.666672 10.5714C0.666672 10.9922 1.00779 11.3333 1.42858 11.3333H3.71429C4.13508 11.3333 4.4762 10.9922 4.4762 10.5714C4.4762 10.1506 4.13508 9.80952 3.71429 9.80952H1.42858C1.00779 9.80952 0.666672 10.1506 0.666672 10.5714Z" fill="#A7A7A7"/>
<path d="M0.666672 7.52381C0.666672 7.9446 1.00779 8.28571 1.42858 8.28571H6C6.42079 8.28571 6.76191 7.9446 6.76191 7.52381C6.76191 7.10302 6.42079 6.7619 6 6.7619H1.42858C1.00779 6.7619 0.666672 7.10302 0.666672 7.52381Z" fill="#A7A7A7"/>
<path d="M0.666672 4.47619C0.666672 4.89698 1.00779 5.2381 1.42858 5.2381H8.28572C8.70651 5.2381 9.04762 4.89698 9.04762 4.47619C9.04762 4.0554 8.70651 3.71429 8.28572 3.71429H1.42858C1.00779 3.71429 0.666672 4.0554 0.666672 4.47619Z" fill="#A7A7A7"/>
<path d="M0.666672 1.42857C0.666672 1.84936 1.00779 2.19048 1.42858 2.19048H10.5714C10.9922 2.19048 11.3333 1.84936 11.3333 1.42857C11.3333 1.00778 10.9922 0.666667 10.5714 0.666667H1.42858C1.00779 0.666667 0.666672 1.00778 0.666672 1.42857Z" fill="#A7A7A7"/>
</svg>

<svg width="12" height="12" xmlns="http://www.w3.org/2000/svg"><path d="M.667 10.571c0 .421.34.762.762.762h2.285a.762.762 0 100-1.523H1.43a.762.762 0 00-.762.761zM.667 7.524c0 .42.34.762.762.762H6a.762.762 0 100-1.524H1.429a.762.762 0 00-.762.762zM.667 4.476c0 .421.34.762.762.762h6.857a.762.762 0 000-1.524H1.429a.762.762 0 00-.762.762zM.667 1.429c0 .42.34.761.762.761h9.142a.762.762 0 100-1.523H1.43a.762.762 0 00-.762.762z"/></svg>
